svgs/tapatalk_pro.svg

<svg width="192" height="192" viewBox="0 0 192 192" fill="none" xmlns="http://www.w3.org/2000/svg"><path d="M90 58v60c0 8.837 7.163 16 16 16h8M70 84h44" stroke="#000" stroke-width="12" stroke-linecap="round" stroke-linejoin="round"/><path d="M144.209 25.076c.999-2.532 4.583-2.532 5.582 0l4.368 11.075a3 3 0 0 0 1.69 1.69l11.075 4.368c2.532.999 2.532 4.583 0 5.582l-11.075 4.368a3 3 0 0 0-1.69 1.69l-4.368 11.075c-.999 2.532-4.583 2.532-5.582 0l-4.368-11.075a3 3 0 0 0-1.69-1.69l-11.075-4.368c-2.532-.999-2.532-4.583 0-5.582l11.075-4.368a3 3 0 0 0 1.69-1.69l4.368-11.075Z" fill="#000"/><path fill-rule="evenodd" clip-rule="evenodd" d="M96 16c-44.183 0-80 35.817-80 80 0 15.18 4.233 29.386 11.585 41.486l-11.215 30.44a6 6 0 0 0 7.704 7.704l30.44-11.215C66.614 171.767 80.82 176 96 176c44.183 0 80-35.817 80-80h-12c0 37.555-30.445 68-68 68-13.856 0-26.727-4.138-37.468-11.244a6 6 0 0 0-5.384-.626l-21.024 7.746 7.746-21.024a5.998 5.998 0 0 0-.626-5.384C32.138 122.727 28 109.856 28 96c0-37.555 30.445-68 68-68V16Z" fill="#000"/><path fill-rule="evenodd" clip-rule="evenodd" d="M67.262 34.371a68 68 0 0 1 41.713-5.122 6 6 0 0 0 2.29-11.78A80 80 0 0 0 16 96h12a68 68 0 0 1 39.262-61.629ZM96 164v12a79.994 79.994 0 0 0 69.97-41.215 80.003 80.003 0 0 0 9.434-48.534 6 6 0 0 0-11.911 1.462A68 68 0 0 1 96 164Z" fill="#000"/></svg>

<?xml version="1.0" encoding="UTF-8" standalone="no"?><svg xmlns:android="http://schemas.android.com/apk/res/android" height="192" width="192" xmlns="http://www.w3.org/2000/svg">
  <path d="M90,58V118C90,126.837 97.163,134 106,134H114M70,84H114" fill="#000000" fill-opacity="0.0" stroke="#000000" stroke-linecap="round" stroke-linejoin="round" stroke-width="12"/>
  <path d="M144.209,25.076C145.208,22.544 148.792,22.544 149.791,25.076L154.159,36.151C154.464,36.924 155.076,37.536 155.849,37.841L166.924,42.209C169.456,43.208 169.456,46.792 166.924,47.791L155.849,52.159C155.076,52.464 154.464,53.076 154.159,53.849L149.791,64.924C148.792,67.456 145.208,67.456 144.209,64.924L139.841,53.849C139.536,53.076 138.924,52.464 138.151,52.159L127.076,47.791C124.544,46.792 124.544,43.208 127.076,42.209L138.151,37.841C138.924,37.536 139.536,36.924 139.841,36.151L144.209,25.076Z" fill="#000000"/>
  <path d="M96,16C51.817,16 16,51.817 16,96C16,111.18 20.233,125.386 27.585,137.486L16.37,167.926C15.561,170.122 16.103,172.588 17.757,174.243C19.412,175.897 21.878,176.439 24.074,175.63L54.514,164.415C66.614,171.767 80.821,176 96,176C140.183,176 176,140.183 176,96H164C164,133.555 133.555,164 96,164C82.144,164 69.273,159.862 58.532,152.756C56.939,151.702 54.94,151.47 53.148,152.13L32.124,159.876L39.87,138.852C40.53,137.06 40.298,135.061 39.244,133.468C32.138,122.727 28,109.856 28,96C28,58.445 58.445,28 96,28V16Z" fill="#000000" fill-rule="evenOdd"/>
  <path d="M67.262,34.371C80.277,28.302 94.879,26.509 108.975,29.249C112.228,29.882 115.377,27.757 116.01,24.504C116.642,21.252 114.518,18.102 111.265,17.47C94.681,14.246 77.502,16.356 62.191,23.495C46.879,30.635 34.221,42.439 26.031,57.215C19.426,69.13 16,82.483 16,96H28C28,84.511 30.912,73.16 36.526,63.033C43.488,50.473 54.247,40.44 67.262,34.371ZM96,164V176C107.621,176 119.166,173.468 129.809,168.505C145.121,161.365 157.779,149.561 165.97,134.785C174.16,120.009 177.463,103.019 175.404,86.251C175,82.962 172.006,80.623 168.717,81.026C165.428,81.43 163.089,84.424 163.493,87.713C165.243,101.966 162.436,116.407 155.474,128.967C148.512,141.527 137.753,151.56 124.738,157.629C115.691,161.848 105.878,164 96,164Z" fill="#000000" fill-rule="evenOdd"/>
</svg>
